X:1
T:We’re Traveling Home
T:We’re Traveling Home
T:Hubert Platt Main (1839-1925)
T:Public Domain Courtesy of the Cyber Hymnal™
C:Hubert Platt Main (1839-1925)
Z:Public Domain
Z:Courtesy of the Cyber Hymnal™
%%score ( 1 2 ) ( 3 4 )
L:1/8
Q:1/4=115
M:9/8
K:Ab
V:1 treble 
V:2 treble 
V:3 bass 
V:4 bass 
V:1
 [CE] [CE]2 [CA] | [CA]3- [CA]2 [EG] [EA]2 [Ac] | [Ac]3 [GB]3 [Ac]2 [Gd] | e3 c3 A2 B | %4
 [EA]3- [EA]2 [CE] [CE]2 [CA] | [CA]3- [CA]2 [EG] [EA]2 [Ac] | [Ac]3 [GB]3 [Ac]2 [Gd] | %7
 e3 c3 A2 B | [EA]3- [EA]2 [EA] G2 A | [EB]3- [EB]2 [EB] G2 c | [EB]3- [EB]2 [EB] [EG]2 [=DA] | %11
 [EB]3- [EB]2 [EG] [=DF]2 [DG] | E3- E2 [CE] [CE]2 [CA] | [CA]3- [CA]2 [EG] [EA]2 [Ac] | %14
 [Ac]3 [GB]3 [Ac]2 [Gd] | e3 c3 A2 B | [EA]3- [EA]2 |] %17
V:2
 x4 | x9 | x9 | A6 E3 | x9 | x9 | x9 | A6 E3 | x6 E3 | x6 E3 | x9 | x9 | E3- E2 x4 | x9 | x9 | %15
 A6 E3 | x5 |] %17
V:3
 [A,,A,] [A,,A,]3 | [A,,A,]3- [A,,A,]2 [E,B,] C2 E | [E,E]6 [A,E]2 [B,E] | E6 [C,A,]2 [E,D] | %4
 [A,C]3- [A,C]2 [A,,A,] [A,,A,]3 | [A,,A,]3- [A,,A,]2 [E,B,] C2 E | [E,E]6 [A,E]2 [B,E] | %7
 E6 [C,A,]2 [E,D] | [A,C]3- [A,C]2 [E,C] B,2 C | [E,G,]3- [E,G,]2 [E,G,] B,2 A, | %10
 [E,G,]3- [E,G,]2 [E,G,] B,3 | [G,B,]3- [G,B,]2 [E,B,] A,2 B, | [E,G,]3- [E,G,]2 [A,,A,] [A,,A,]3 | %13
 [A,,A,]3- [A,,A,]2 [E,B,] C2 E | [E,E]6 [A,E]2 [B,E] | E6 [C,A,]2 [E,D] | [A,C]3- [A,C]2 |] %17
V:4
 x4 | x6 A,3 | x9 | C3 A,3 x3 | x9 | x6 A,3 | x9 | C3 A,3 x3 | x6 E,3 | x6 E,3 | x6 E,2 F, | %11
 x6 B,,3 | x9 | x6 A,3 | x9 | C3 A,3 x3 | x5 |] %17

